packages/core/src/svgs/tokens/branded/WAIT.svg

<svg width="24" height="24" viewBox="0 0 24 24" fill="none" xmlns="http://www.w3.org/2000/svg">
<path fill-rule="evenodd" clip-rule="evenodd" d="M10.8235 3.17648H2V3.76472H2.35883C2.9353 3.76472 3.17647 4.38236 3.17647 4.96472V10.2059C3.17647 11.6295 2.47058 12.0058 2 12.0176C3.17647 12.1589 3.19999 13.2118 3.17647 13.7236V18.9294C3.17647 19.5177 2.9353 20.2354 2.35883 20.2354H2V20.8235H10.8235V20.2354H10.6353C9.91759 20.2354 9.34112 19.3941 9.34112 18.6648V17.1C9.34112 15.453 11.1117 13.0295 12 12.0176C9.73532 9.28818 9.28237 7.51766 9.33535 6.97059V5.22942C9.33535 4.5 9.92349 3.76472 10.6353 3.76472H10.8235V3.17648ZM5.52941 8.85295V4.35295C5.52941 4.19695 5.46743 4.04732 5.35712 3.93701C5.24681 3.82669 5.09718 3.76472 4.94117 3.76472C4.78516 3.76472 4.63554 3.82669 4.52523 3.93701C4.41492 4.04732 4.35293 4.19695 4.35293 4.35295V10.0589C4.35293 11.4471 5.01176 12.0176 5.47059 12.0176C4.35293 12.153 4.3353 13.7411 4.35293 14.2648V19.6471C4.35293 19.8031 4.41492 19.9528 4.52523 20.063C4.63554 20.1733 4.78516 20.2354 4.94117 20.2354C5.09718 20.2354 5.24681 20.1733 5.35712 20.063C5.46743 19.9528 5.52941 19.8031 5.52941 19.6471V15.2942C5.5269 14.5699 5.75299 13.8633 6.17546 13.275C6.59793 12.6868 7.19525 12.2467 7.88235 12.0176C7.24325 11.7483 6.68793 11.3128 6.27414 10.7563C5.86035 10.1997 5.6032 9.54252 5.52941 8.85295ZM13.1764 3.17648H22V3.76472H21.6412C21.0588 3.76472 20.8236 4.38236 20.8236 4.96472V10.2059C20.8236 11.6295 21.5294 12.0058 22 12.0176C20.8236 12.1589 20.8 13.2118 20.8236 13.7236V18.9294C20.8236 19.5177 21.0647 20.2354 21.6412 20.2354H22V20.8235H13.1764V20.2354H13.3647C14.0823 20.2354 14.6588 19.3941 14.6588 18.6648V17.1C14.6588 15.453 12.8882 13.0295 12 12.0176C14.2647 9.28818 14.7177 7.51766 14.6647 6.97059V5.22942C14.6647 4.5 14.0764 3.76472 13.3647 3.76472H13.1764V3.17648ZM18.4706 8.85295V4.35295C18.4706 4.19695 18.5325 4.04732 18.6429 3.93701C18.7532 3.82669 18.9028 3.76472 19.0588 3.76472C19.2148 3.76472 19.3644 3.82669 19.4748 3.93701C19.5851 4.04732 19.647 4.19695 19.647 4.35295V10.0589C19.647 11.4471 18.9882 12.0176 18.5294 12.0176C19.647 12.153 19.6647 13.7411 19.647 14.2648V19.6471C19.647 19.8031 19.5851 19.9528 19.4748 20.063C19.3644 20.1733 19.2148 20.2354 19.0588 20.2354C18.9028 20.2354 18.7532 20.1733 18.6429 20.063C18.5325 19.9528 18.4706 19.8031 18.4706 19.6471V15.2942C18.4731 14.5699 18.247 13.8633 17.8246 13.275C17.4021 12.6868 16.8048 12.2467 16.1177 12.0176C16.7567 11.7483 17.3121 11.3128 17.7259 10.7563C18.1397 10.1997 18.3968 9.54252 18.4706 8.85295Z" fill="black"/>
</svg>

<svg xmlns="http://www.w3.org/2000/svg" width="24" height="24" fill="none" viewBox="0 0 24 24">
    <path fill="#000" fill-rule="evenodd" d="M10.824 3.176H2v.589h.359c.576 0 .817.617.817 1.2v5.24c0 1.425-.705 1.8-1.176 1.813 1.176.14 1.2 1.194 1.176 1.706v5.205c0 .589-.24 1.306-.817 1.306H2v.588h8.824v-.588h-.189c-.717 0-1.294-.84-1.294-1.57V17.1c0-1.647 1.77-4.07 2.659-5.082-2.265-2.73-2.718-4.5-2.665-5.047V5.229c0-.729.588-1.464 1.3-1.464h.188zM5.528 8.853v-4.5a.588.588 0 0 0-1.176 0v5.706c0 1.388.659 1.959 1.118 1.959-1.118.135-1.136 1.723-1.118 2.247v5.382a.588.588 0 1 0 1.176 0v-4.353a3.44 3.44 0 0 1 2.353-3.276A3.88 3.88 0 0 1 5.53 8.853m7.647-5.677H22v.589h-.359c-.582 0-.817.617-.817 1.2v5.24c0 1.425.705 1.8 1.176 1.813-1.176.14-1.2 1.194-1.176 1.706v5.205c0 .589.24 1.306.817 1.306H22v.588h-8.824v-.588h.189c.717 0 1.294-.84 1.294-1.57V17.1c0-1.647-1.77-4.07-2.659-5.082 2.265-2.73 2.718-4.5 2.665-5.047V5.229c0-.729-.589-1.464-1.3-1.464h-.189zm5.295 5.677v-4.5a.588.588 0 1 1 1.176 0v5.706c0 1.388-.659 1.959-1.118 1.959 1.118.135 1.136 1.723 1.118 2.247v5.382a.588.588 0 1 1-1.176 0v-4.353a3.44 3.44 0 0 0-2.353-3.276 3.88 3.88 0 0 0 2.353-3.165" clip-rule="evenodd"/>
</svg>
